/* XPM */
static char * indicator_circle_blue_xpm[] = {
"20 20 7 1",
" 	c #EFEFE7",
".	c #BBBBEC",
"+	c #6161F4",
"@	c #2525FA",
"#	c #0707FC",
"$	c #0000FD",
"%	c #4343F7",
"                    ",
"                    ",
"      .+@##@+.      ",
"     +$$$$$$$$+     ",
"    %$$$$$$$$$$%    ",
"   +$$$$$$$$$$$$+   ",
"  .$$$$$$$$$$$$$$.  ",
"  +$$$$$$$$$$$$$$+  ",
"  @$$$$$$$$$$$$$$@  ",
"  #$$$$$$$$$$$$$$#  ",
"  #$$$$$$$$$$$$$$#  ",
"  @$$$$$$$$$$$$$$@  ",
"  +$$$$$$$$$$$$$$+  ",
"  .$$$$$$$$$$$$$$.  ",
"   +$$$$$$$$$$$$+   ",
"    %$$$$$$$$$$%    ",
"     +$$$$$$$$+     ",
"      .+@##@+.      ",
"                    ",
"                    "};
