/* XPM */
static char * indicator_circle_red_xpm[] = {
"20 20 7 1",
" 	c #EFEFE7",
".	c #F4BEB9",
"+	c #FB6564",
"@	c #FD2828",
"#	c #FD0707",
"$	c #FD0101",
"%	c #FC4747",
"                    ",
"                    ",
"      .+@##@+.      ",
"     +$$$$$$$$+     ",
"    %$$$$$$$$$$%    ",
"   +$$$$$$$$$$$$+   ",
"  .$$$$$$$$$$$$$$.  ",
"  +$$$$$$$$$$$$$$+  ",
"  @$$$$$$$$$$$$$$@  ",
"  #$$$$$$$$$$$$$$#  ",
"  #$$$$$$$$$$$$$$#  ",
"  @$$$$$$$$$$$$$$@  ",
"  +$$$$$$$$$$$$$$+  ",
"  .$$$$$$$$$$$$$$.  ",
"   +$$$$$$$$$$$$+   ",
"    %$$$$$$$$$$%    ",
"     +$$$$$$$$+     ",
"      .+@##@+.      ",
"                    ",
"                    "};
